src/svg/acciones/accion-im-update.svg

<?xml version="1.0" encoding="UTF-8" standalone="no"?>
<!-- Generado por Andres Lacquaniti  -->

<svg
   xmlns:dc="http://purl.org/dc/elements/1.1/"
   xmlns:cc="http://creativecommons.org/ns#"
   xmlns:rdf="http://www.w3.org/1999/02/22-rdf-syntax-ns#"
   xmlns:svg="http://www.w3.org/2000/svg"
   xmlns="http://www.w3.org/2000/svg"
   xmlns:sodipodi="http://sodipodi.sourceforge.net/DTD/sodipodi-0.dtd"
   xmlns:inkscape="http://www.inkscape.org/namespaces/inkscape"
   version="1.1"
   id="Layer_1"
   x="0px"
   y="0px"
   width="15px"
   height="15px"
   viewBox="0 0 15 15"
   style="enable-background:new 0 0 15 15;"
   xml:space="preserve"
   sodipodi:docname="im-update.svg"
   inkscape:version="0.92.0 r15299"><metadata
     id="metadata9"><rdf:RDF><cc:Work
         rdf:about=""><dc:format>image/svg+xml</dc:format><dc:type
           rdf:resource="http://purl.org/dc/dcmitype/StillImage" /><dc:title /></cc:Work></rdf:RDF></metadata><defs
     id="defs7" /><sodipodi:namedview
     pagecolor="#ffffff"
     bordercolor="#666666"
     borderopacity="1"
     objecttolerance="10"
     gridtolerance="10"
     guidetolerance="10"
     inkscape:pageopacity="0"
     inkscape:pageshadow="2"
     inkscape:window-width="1920"
     inkscape:window-height="996"
     id="namedview5"
     showgrid="false"
     inkscape:zoom="31.466666"
     inkscape:cx="12.093404"
     inkscape:cy="10.886809"
     inkscape:window-x="-8"
     inkscape:window-y="-8"
     inkscape:window-maximized="1"
     inkscape:current-layer="Layer_1" /><g
     style="clip-rule:evenodd;fill-rule:evenodd"
     transform="matrix(0.03011585,0,0,-0.03011585,-14.323265,-6.8330439)"
     id="g5219" /><g
     aria-label="+"
     style="font-style:normal;font-variant:normal;font-weight:normal;font-stretch:normal;font-size:40px;line-height:25px;font-family:Verdana;-inkscape-font-specification:Verdana;letter-spacing:0px;word-spacing:0px;fill:#ffffff;fill-opacity:1;stroke:none"
     id="text4492"
     transform="matrix(0.21416104,0,0,0.21416104,1.4219615,2.4458528)" /><path
     style="color:#000000;font-style:normal;font-variant:normal;font-weight:normal;font-stretch:normal;font-size:medium;line-height:normal;font-family:sans-serif;font-variant-ligatures:normal;font-variant-position:normal;font-variant-caps:normal;font-variant-numeric:normal;font-variant-alternates:normal;font-feature-settings:normal;text-indent:0;text-align:start;text-decoration:none;text-decoration-line:none;text-decoration-style:solid;text-decoration-color:#000000;letter-spacing:normal;word-spacing:normal;text-transform:none;writing-mode:lr-tb;direction:ltr;text-orientation:mixed;dominant-baseline:auto;baseline-shift:baseline;text-anchor:start;white-space:normal;shape-padding:0;clip-rule:nonzero;display:inline;overflow:visible;visibility:visible;opacity:1;isolation:auto;mix-blend-mode:normal;color-interpolation:sRGB;color-interpolation-filters:linearRGB;solid-color:#000000;solid-opacity:1;vector-effect:none;fill-opacity:1;fill-rule:nonzero;stroke:none;stroke-width:0.01274382;stroke-linecap:butt;stroke-linejoin:miter;stroke-miterlimit:4;stroke-dasharray:none;stroke-dashoffset:0;stroke-opacity:1;color-rendering:auto;image-rendering:auto;shape-rendering:auto;text-rendering:auto;enable-background:accumulate"
     d="M 5.9921875 -0.16015625 L 5.4375 0.19335938 L 4.9335938 0.74804688 L 4.5292969 1.3027344 L 4.0761719 2.1601562 L 3.7773438 2.8085938 L 3.7578125 2.8085938 L 3.3535156 3.4140625 C 3.3535156 3.4140625 3.001434 4.0696094 3.203125 3.96875 C 3.404828 3.8678905 3.4042969 4.3203125 3.4042969 4.3203125 L 3.65625 4.7753906 L 4.0097656 5.1777344 L 4.3125 5.53125 L 4.4628906 5.734375 L 4.7167969 6.2382812 L 4.9179688 6.9941406 L 5.0683594 7.7011719 L 4.9179688 8.4570312 L 4.8164062 9.1132812 L 4.4785156 9.5214844 L 4.4160156 9.6210938 L 4.0097656 9.2636719 L 3.5566406 8.3574219 L 2.1230469 7.40625 L 2.4003906 7.84375 L 2.1230469 7.4550781 L 1.4375 8.28125 L 1.4140625 8.6972656 L 1.0078125 8.7988281 L 0.83203125 9.0371094 L 0.24804688 9.6582031 L 1.1855469 10.267578 L 1.640625 10.621094 L 2.9824219 10.720703 L 2.984375 10.722656 L 3.1484375 10.755859 L 2.7988281 10.828125 L 2.4960938 11.130859 L 2.1933594 11.080078 L 2.0429688 11.484375 L 2.1425781 11.837891 L 2.7480469 11.9375 L 3.0019531 12.138672 L 3.6054688 12.189453 L 4.1113281 12.089844 L 4.1621094 11.736328 L 4.2128906 11.583984 L 4.4765625 12.166016 L 4.4902344 12.171875 C 4.5627834 12.347486 4.5891833 12.418972 4.7460938 12.529297 C 4.8762356 12.620777 5.0049949 12.714561 5.1347656 12.806641 C 5.3540999 12.962206 5.8029156 13.384802 6.0722656 13.158203 C 6.2837367 12.980247 6.4496953 12.673727 6.6230469 12.455078 L 6.6679688 11.958984 C 6.6679688 11.958984 7.1034424 11.853516 7.1035156 11.853516 C 7.1788676 11.835356 7.3233576 11.562553 7.3691406 11.501953 C 7.4488106 11.396345 7.65308 11.211663 7.65625 11.056641 C 7.656707 11.033881 7.6518201 11.011194 7.6425781 10.990234 C 7.5948531 10.879994 6.7036567 10.529749 6.7460938 10.423828 C 6.7371837 10.445028 6.738864 10.468194 6.734375 10.490234 L 6.3066406 10.214844 L 5.1035156 10.183594 L 5 10.101562 L 5.0195312 10.072266 L 5.1699219 9.8183594 L 5.3222656 9.6171875 L 5.5742188 9.1132812 L 5.6230469 8.5585938 L 5.6738281 7.6503906 L 5.5742188 6.6914062 L 5.1699219 5.6328125 L 5.203125 5.4121094 L 5.4804688 5.7089844 L 6.9257812 7.0957031 C 7.1041377 7.2510399 7.2826668 7.4052105 7.4609375 7.5605469 C 7.7129582 7.7801397 7.9700183 7.9691071 8.1796875 8.2460938 C 8.3726279 8.5010891 8.4718428 8.8191008 8.6914062 9.0527344 C 8.7867464 9.154195 8.8429026 9.2850495 8.9179688 9.4042969 C 9.0102781 9.5508548 9.059271 9.698512 9.1542969 9.8378906 C 9.2577301 9.989424 9.4371791 10.120686 9.5664062 10.25 L 10.332031 11.015625 L 9.9121094 11.21875 L 9.0644531 11.310547 L 7.6386719 12.326172 L 7.7324219 12.306641 L 8.3242188 13.240234 L 8.7285156 13.410156 L 8.6953125 13.828125 L 8.875 14.078125 L 9.2988281 14.847656 L 10.216797 14.179688 L 10.720703 13.875 L 11.279297 12.623047 L 11.263672 12.628906 L 11.373047 12.449219 L 11.486328 12.365234 L 11.458984 12.796875 L 11.558594 12.916016 L 11.519531 13.033203 L 11.539062 13.271484 L 11.597656 13.410156 L 11.777344 13.529297 L 12.013672 13.490234 L 12.191406 13.351562 L 12.271484 13.171875 L 12.28125 13.25 L 12.466797 13.496094 C 12.490107 13.584374 12.426206 13.670256 12.535156 13.759766 C 12.718026 13.909869 12.805736 13.691865 12.816406 13.554688 C 12.822706 13.474176 12.799948 13.459038 12.767578 13.386719 C 12.750538 13.348599 12.603565 12.986475 12.601562 12.986328 L 12.707031 12.994141 L 12.925781 12.916016 L 13.083984 12.5 L 12.925781 12.183594 L 12.845703 12.044922 L 12.873047 11.804688 L 13.164062 11.785156 L 13.265625 11.666016 C 13.253305 11.682116 13.22545 11.732981 13.21875 11.738281 C 13.417811 11.731781 13.495976 11.732081 13.658203 11.623047 C 13.792807 11.532797 13.929393 11.443336 14.064453 11.353516 C 14.292596 11.201754 14.862138 10.92951 14.726562 10.595703 C 14.619955 10.333528 14.372602 10.06865 14.212891 9.828125 L 13.732422 9.609375 C 13.732422 9.609375 13.773346 9.1622558 13.773438 9.1621094 C 13.780537 9.0846984 13.556729 8.8515654 13.511719 8.7871094 C 13.433249 8.6746686 13.317341 8.4190641 13.164062 8.3613281 C 13.141614 8.3529181 13.11774 8.3482394 13.09375 8.3496094 C 12.968008 8.3555894 12.323762 9.0714656 12.232422 8.9941406 C 12.382076 9.1253294 12.615821 9.1150684 12.707031 9.2832031 L 12.296875 9.0332031 L 11.833984 9.3730469 L 11.402344 10.496094 L 10.960938 10.753906 L 9.7167969 9.6289062 L 9.5 9.1542969 L 9.4003906 8.9160156 L 9.1640625 8.5605469 C 8.9507607 8.2762115 8.828853 7.9029539 8.5898438 7.6503906 C 8.2318966 7.272061 7.7671126 6.9833822 7.3613281 6.6601562 L 5.4414062 4.6992188 L 5.5234375 4.2207031 L 5.421875 3.8164062 L 5.1191406 3.6152344 L 4.8671875 3.1113281 L 4.546875 2.8359375 L 5.1347656 1.8574219 L 5.5898438 1.3535156 L 6.0429688 0.79882812 L 6.4472656 0.24414062 L 5.4882812 0.4453125 L 5.9921875 -0.16015625 z M 11.042969 0.12695312 A 3.3845339 3.3845339 0 0 0 7.6582031 3.5117188 A 3.3845339 3.3845339 0 0 0 11.042969 6.8964844 A 3.3845339 3.3845339 0 0 0 14.427734 3.5117188 A 3.3845339 3.3845339 0 0 0 11.042969 0.12695312 z M 10.84375 1.0449219 C 11.043457 1.0448419 11.24456 1.064821 11.416016 1.109375 C 11.682631 1.1786474 11.877496 1.2858472 12.046875 1.453125 L 12.185547 1.5898438 L 11.935547 1.6074219 C 11.818236 1.6158389 11.662451 1.6337484 11.587891 1.6464844 C 10.899688 1.7640585 10.495753 2.1141121 10.363281 2.7070312 C 10.324951 2.8785597 10.309981 2.9957266 10.300781 3.2402344 L 10.294922 3.4296875 L 10.613281 3.4296875 L 10.982422 3.4296875 L 10.228516 4.1835938 C 10.028374 4.3837556 9.8459447 4.5653345 9.7128906 4.6972656 C 9.646377 4.7632352 9.5923775 4.8184757 9.5546875 4.8554688 C 9.5358315 4.8739688 9.5199686 4.8866744 9.5097656 4.8964844 C 9.5046836 4.9013964 9.5008569 4.9055831 9.4980469 4.9082031 C 9.4966369 4.9095031 9.4971238 4.9112525 9.4960938 4.9121094 L 9.4941406 4.9140625 L 9.4921875 4.9140625 C 9.4921875 4.9140925 9.484375 4.9160156 9.484375 4.9160156 L 9.4804688 4.9160156 L 9.484375 4.9003906 C 9.484375 4.9003906 9.4746411 4.9140826 9.4746094 4.9140625 L 9.4726562 4.9140625 L 9.4726562 4.9121094 C 9.4716262 4.9112694 9.47016 4.9095131 9.46875 4.9082031 C 9.465932 4.9055621 9.4620815 4.9013844 9.4570312 4.8964844 C 9.4468442 4.8866784 9.4309654 4.8739668 9.4121094 4.8554688 C 9.3743972 4.8184731 9.3223704 4.7632346 9.2558594 4.6972656 C 9.1228341 4.5653267 8.9403769 4.3837557 8.7402344 4.1835938 L 8.7363281 4.1796875 L 7.9863281 3.4296875 L 8.359375 3.4296875 L 8.6816406 3.4296875 L 8.6816406 3.3496094 C 8.6816406 3.1553376 8.7318134 2.8565234 8.8027344 2.625 C 9.0445803 1.8354382 9.5746216 1.2855805 10.269531 1.109375 C 10.443966 1.065144 10.644044 1.0450028 10.84375 1.0449219 z M 12.675781 1.96875 L 13.416016 2.7089844 L 14.169922 3.4589844 L 13.800781 3.4589844 L 13.482422 3.4589844 L 13.482422 3.5351562 C 13.482422 3.742393 13.431239 4.0487866 13.355469 4.2890625 C 13.079458 5.1642458 12.462143 5.7198313 11.648438 5.828125 C 11.487094 5.849595 11.154118 5.849673 10.996094 5.828125 L 10.984375 5.8261719 L 10.984375 5.8222656 C 10.60994 5.7685455 10.322799 5.6460189 10.111328 5.4335938 L 9.9824219 5.3007812 L 10.216797 5.2851562 C 10.526445 5.2633541 10.699 5.2335446 10.904297 5.1660156 C 11.282269 5.0416891 11.547121 4.817018 11.701172 4.4882812 C 11.806816 4.2628443 11.867084 3.9228832 11.867188 3.5488281 L 11.867188 3.4589844 L 11.554688 3.4570312 L 11.189453 3.4550781 L 11.939453 2.7050781 L 12.675781 1.96875 z "
     id="path5094" /></svg>

<svg width="15px" height="15px" enable-background="new 0 0 15 15" version="1.1" viewBox="0 0 15 15" xmlns="http://www.w3.org/2000/svg">
 <path d="m5.9922-0.16016-0.55469 0.35352-0.50391 0.55469-0.4043 0.55469-0.45312 0.85742-0.29883 0.64844h-0.019531l-0.4043 0.60547s-0.35208 0.65555-0.15039 0.55469c0.2017-0.10086 0.20117 0.35156 0.20117 0.35156l0.25195 0.45508 0.35352 0.40234 0.30273 0.35352 0.15039 0.20312 0.25391 0.50391 0.20117 0.75586 0.15039 0.70703-0.15039 0.75586-0.10156 0.65625-0.33789 0.4082-0.0625 0.099609-0.40625-0.35742-0.45312-0.90625-1.4336-0.95117 0.27734 0.4375-0.27734-0.38867-0.68555 0.82617-0.023438 0.41602-0.40625 0.10156-0.17578 0.23828-0.58398 0.62109 0.9375 0.60937 0.45508 0.35352 1.3418 0.099609 0.0019531 0.001953 0.16406 0.033203-0.34961 0.072266-0.30273 0.30273-0.30273-0.050781-0.15039 0.4043 0.099609 0.35352 0.60547 0.099609 0.25391 0.20117 0.60352 0.050781 0.50586-0.099609 0.050781-0.35352 0.050781-0.15234 0.26367 0.58203 0.013672 0.005859c0.072549 0.17561 0.098949 0.2471 0.25586 0.35742 0.13014 0.09148 0.2589 0.18526 0.38867 0.27734 0.21933 0.15556 0.66815 0.57816 0.9375 0.35156 0.21147-0.17796 0.37743-0.48448 0.55078-0.70312l0.044922-0.49609s0.43547-0.10547 0.43555-0.10547c0.075352-0.01816 0.21984-0.29096 0.26562-0.35156 0.07967-0.10561 0.28394-0.29029 0.28711-0.44531 4.57e-4 -0.02276-0.0044299-0.045447-0.013672-0.066407-0.047725-0.11024-0.93892-0.46048-0.89648-0.56641-0.0089101 0.0212-0.0072298 0.044366-0.011719 0.066406l-0.42773-0.27539-1.2031-0.03125-0.10352-0.082032 0.019531-0.029296 0.15039-0.25391 0.15234-0.20117 0.25195-0.50391 0.048828-0.55469 0.050781-0.9082-0.099609-0.95898-0.4043-1.0586 0.033203-0.2207 0.27734 0.29688 1.4453 1.3867c0.17836 0.15534 0.35689 0.30951 0.53516 0.46484 0.25202 0.21959 0.50908 0.40856 0.71875 0.68555 0.19294 0.255 0.29216 0.57301 0.51172 0.80664 0.09534 0.10146 0.1515 0.23232 0.22656 0.35156 0.092309 0.14656 0.1413 0.29422 0.23633 0.43359 0.10343 0.15153 0.28288 0.2828 0.41211 0.41211l0.76562 0.76562-0.41992 0.20312-0.84766 0.091797-1.4258 1.0156 0.09375-0.019531 0.5918 0.93359 0.4043 0.16992-0.033203 0.41797 0.17969 0.25 0.42383 0.76953 0.91797-0.66797 0.50391-0.30469 0.55859-1.252-0.015625 0.005859 0.10938-0.17969 0.11328-0.083985-0.027344 0.43164 0.09961 0.11914-0.039063 0.11719 0.019531 0.23828 0.058594 0.13867 0.17969 0.11914 0.23633-0.039063 0.17773-0.13867 0.080078-0.17969 0.009766 0.078125 0.18555 0.24609c0.02331 0.08828-0.040591 0.17416 0.068359 0.26367 0.18287 0.1501 0.27058-0.067901 0.28125-0.20508 0.0063-0.080512-0.016458-0.09565-0.048828-0.16797-0.01704-0.03812-0.16401-0.40024-0.16602-0.40039l0.10547 0.007813 0.21875-0.078125 0.1582-0.41602-0.1582-0.31641-0.080078-0.13867 0.027344-0.24023 0.29102-0.019532 0.10156-0.11914c-0.01232 0.0161-0.040175 0.066965-0.046875 0.072265 0.19906-0.0065 0.27723-0.0062 0.43945-0.11523 0.1346-0.09025 0.27119-0.17971 0.40625-0.26953 0.22814-0.15176 0.79768-0.42401 0.66211-0.75781-0.10661-0.26218-0.35396-0.52705-0.51367-0.76758l-0.48047-0.21875s0.040924-0.44712 0.041016-0.44727c0.007099-0.077411-0.21671-0.31054-0.26172-0.375-0.07847-0.11244-0.19438-0.36805-0.34766-0.42578-0.022448-0.00841-0.046322-0.013089-0.070312-0.011719-0.12574 0.00598-0.76999 0.72186-0.86133 0.64453 0.14965 0.13119 0.3834 0.12093 0.47461 0.28906l-0.41016-0.25-0.46289 0.33984-0.43164 1.123-0.44141 0.25781-1.2441-1.125-0.2168-0.47461-0.099609-0.23828-0.23633-0.35547c-0.2133-0.28434-0.33521-0.65759-0.57422-0.91016-0.35795-0.37833-0.82273-0.66701-1.2285-0.99023l-1.9199-1.9609 0.082031-0.47852-0.10156-0.4043-0.30273-0.20117-0.25195-0.50391-0.32031-0.27539 0.58789-0.97852 0.45508-0.50391 0.45312-0.55469 0.4043-0.55469-0.95898 0.20117 0.50391-0.60547zm5.0508 0.28711a3.3845 3.3845 0 0 0-3.3848 3.3848 3.3845 3.3845 0 0 0 3.3848 3.3848 3.3845 3.3845 0 0 0 3.3848-3.3848 3.3845 3.3845 0 0 0-3.3848-3.3848zm-0.19922 0.91797c0.19971-8e-5 0.40081 0.019899 0.57227 0.064453 0.26662 0.069272 0.46148 0.17647 0.63086 0.34375l0.13867 0.13672-0.25 0.017578c-0.11731 0.008417-0.2731 0.026326-0.34766 0.039062-0.6882 0.11757-1.0921 0.46763-1.2246 1.0605-0.03833 0.17153-0.0533 0.2887-0.0625 0.5332l-0.005859 0.18945h0.31836 0.36914l-0.75391 0.75391c-0.20014 0.20016-0.38257 0.38174-0.51563 0.51367-0.066514 0.06597-0.12051 0.12121-0.1582 0.1582-0.018856 0.0185-0.034719 0.031206-0.044922 0.041016-0.005082 0.004912-0.0089087 0.0090987-0.011719 0.011719-0.00141 0.0013-9.231e-4 0.0030494-0.0019531 0.0039063l-0.0019532 0.0019531h-0.0019531c0 3e-5 -0.0078125 0.0019531-0.0078125 0.0019531h-0.0039062l0.0039062-0.015625s-0.0097339 0.013692-0.0097656 0.013672h-0.0019532v-0.0019531c-0.00103-8.4e-4 -0.0024962-0.0025963-0.0039062-0.0039063-0.002818-0.002641-0.0066685-0.0068187-0.011719-0.011719-0.010187-0.009806-0.026066-0.022518-0.044922-0.041016-0.037712-0.036996-0.089739-0.092234-0.15625-0.1582-0.13303-0.13194-0.31548-0.31351-0.51562-0.51367l-0.75391-0.75391h0.37305 0.32227v-0.080078c0-0.19427 0.050173-0.49309 0.12109-0.72461 0.24185-0.78956 0.77189-1.3394 1.4668-1.5156 0.17444-0.044231 0.37451-0.064372 0.57422-0.064453zm1.832 0.92383 0.74024 0.74023 0.75391 0.75h-0.36914-0.31836v0.076172c0 0.20724-0.051183 0.51363-0.12695 0.75391-0.27601 0.87518-0.89333 1.4308-1.707 1.5391-0.16134 0.02147-0.49432 0.021548-0.65234 0l-0.011719-0.0019531v-0.0039063c-0.37444-0.05372-0.66158-0.17625-0.87305-0.38867l-0.12891-0.13281 0.23438-0.015625c0.30965-0.021802 0.4822-0.051612 0.6875-0.11914 0.37797-0.12433 0.64282-0.349 0.79688-0.67773 0.10564-0.22544 0.16591-0.5654 0.16602-0.93945v-0.089844l-0.3125-0.0019532-0.36524-0.0019531 1.4863-1.4863z" color="#000000" color-rendering="auto" dominant-baseline="auto" enable-background="accumulate" image-rendering="auto" shape-rendering="auto" solid-color="#000000" style="font-feature-settings:normal;font-variant-alternates:normal;font-variant-caps:normal;font-variant-ligatures:normal;font-variant-numeric:normal;font-variant-position:normal;isolation:auto;mix-blend-mode:normal;shape-padding:0;text-decoration-color:#000000;text-decoration-line:none;text-decoration-style:solid;text-indent:0;text-orientation:mixed;text-transform:none;white-space:normal"/>
</svg>
